X:145
T:Milliner's Daughter, The
T:Upstairs in a Tent
R:reel
Z:id:hn-reel-145
M:C|
K:G
G2BG DGBG|A2eg fdcA|G2BG DGBd|cAFA AG~G2:|
dg~g2 dg~g2|df~f2 df~f2|dg~g2 dg~g2|d^cde fd=cA|
dg~g2 bgag|fdde fefg|af (3gfe fde^c|d2eg fdcA||

